symbols/web/spatial_audio/materialsymbolsoutlined/spatial_audio_wght200grad200fill1_24px.svg

<svg xmlns="http://www.w3.org/2000/svg" height="24" width="24"><path d="M23.45 9.525q-1.85 0-3.525-.713Q18.25 8.1 16.95 6.825q-1.275-1.275-1.962-2.963Q14.3 2.175 14.3.35h1.95q0 1.425.55 2.75t1.575 2.35q1 1 2.313 1.537 1.312.538 2.762.538Zm0-5.125q-.825 0-1.575-.325t-1.3-.875q-.55-.575-.887-1.313Q19.35 1.15 19.35.35h2.025q0 .4.15.775t.45.675q.325.325.7.475.375.15.775.15ZM9.6 11.225q-1.5 0-2.525-1.025T6.05 7.675q0-1.5 1.025-2.525T9.6 4.125q1.475 0 2.513 1.025 1.037 1.025 1.037 2.525T12.113 10.2q-1.038 1.025-2.513 1.025ZM2.125 19.65v-2q0-.8.413-1.4.412-.6 1.112-.925Q4.95 14.7 6.5 14.3q1.55-.4 3.1-.4t3.1.4q1.55.4 2.85 1.025.7.325 1.113.925.412.6.412 1.375v2.025Z"/></svg>

<svg xmlns="http://www.w3.org/2000/svg" height="24" width="24"><path d="M23.45 9.525Q21.6 9.525 19.925 8.812Q18.25 8.1 16.95 6.825Q15.675 5.55 14.988 3.862Q14.3 2.175 14.3 0.35H16.25Q16.25 1.775 16.8 3.1Q17.35 4.425 18.375 5.45Q19.375 6.45 20.688 6.987Q22 7.525 23.45 7.525ZM23.45 4.4Q22.625 4.4 21.875 4.075Q21.125 3.75 20.575 3.2Q20.025 2.625 19.688 1.887Q19.35 1.15 19.35 0.35H21.375Q21.375 0.75 21.525 1.125Q21.675 1.5 21.975 1.8Q22.3 2.125 22.675 2.275Q23.05 2.425 23.45 2.425ZM9.6 11.225Q8.1 11.225 7.075 10.2Q6.05 9.175 6.05 7.675Q6.05 6.175 7.075 5.15Q8.1 4.125 9.6 4.125Q11.075 4.125 12.113 5.15Q13.15 6.175 13.15 7.675Q13.15 9.175 12.113 10.2Q11.075 11.225 9.6 11.225ZM2.125 19.65V17.65Q2.125 16.85 2.538 16.25Q2.95 15.65 3.65 15.325Q4.95 14.7 6.5 14.3Q8.05 13.9 9.6 13.9Q11.15 13.9 12.7 14.3Q14.25 14.7 15.55 15.325Q16.25 15.65 16.663 16.25Q17.075 16.85 17.075 17.625V19.65Z"/></svg>
